svg/Outline/bill.svg

<svg viewBox="0 0 24 24" xmlns="http://www.w3.org/2000/svg" width="24" height="24"><path d="M15.83 10.86a.9.9 0 0 1 0 1.79h-3a.9.9 0 0 1 0-1.8h3m0-3.52a.9.9 0 0 1 0 1.8h-5.9a.9.9 0 0 1 0-1.8z"/><path fill-rule="evenodd" d="M10.47 3.23a1 1 0 0 1 .64.04l1.66.73 1.62-.73.09-.04a1 1 0 0 1 .64.03l1.7.75 1.74-.75a.9.9 0 0 1 1.26.83v12.78a3.94 3.94 0 0 1-3.75 3.94H4.92q-1.18 0-2.05-.42-.89-.46-1.3-1.27a7 7 0 0 1-.59-3.02v-.45q0-.3.11-.57l.07-.14q.1-.2.26-.36l.11-.1q.18-.15.39-.22l.14-.05q.2-.07.43-.07h3.36V4.1a.9.9 0 0 1 1.27-.82L8.75 4l1.63-.73zM2.78 15.94c.02 1.09.1 1.84.37 2.32q.18.35.53.52.36.21 1.24.23h7.65a4 4 0 0 1-.64-2.14v-.93zM13.14 5.81a1 1 0 0 1-.73 0l-1.66-.74-1.63.74a1 1 0 0 1-.74 0l-.73-.33v8.66h5.19c.5 0 .9.4.9.9v1.83a2.14 2.14 0 0 0 4.28 0V5.45l-.84.36a1 1 0 0 1-.71 0l-1.7-.74z" clip-rule="evenodd"/></svg>

<svg viewBox="0 0 24 24" xmlns="http://www.w3.org/2000/svg" width="24" height="24"><path d="M15.83 10.86a.9.9 0 0 1 0 1.79h-3a.9.9 0 0 1 0-1.8h3m0-3.52a.9.9 0 0 1 0 1.8h-5.9a.9.9 0 0 1 0-1.8z"/><path fill-rule="evenodd" d="M10.47 3.23A1 1 0 0 1 11.11 3.27L12.77 4L14.48 3.23A1 1 0 0 1 15.12 3.26L16.82 4.01L18.56 3.26A.9 .9 0 0 1 19.82 4.09L19.82 16.87A3.94 3.94 0 0 1 16.07 20.81L4.92 20.81Q3.74 20.81 2.87 20.39Q1.98 19.93 1.57 19.12A7 7 0 0 1 .98 16.1L.98 15.65Q.98 15.35 1.09 15.08L1.16 14.94Q1.26 14.74 1.42 14.58L1.53 14.48Q1.71 14.33 1.92 14.26L2.06 14.21Q2.26 14.14 2.49 14.14L5.85 14.14L5.85 4.1A.9 .9 0 0 1 7.12 3.28L8.75 4L10.38 3.27ZM2.78 15.94c.02 1.09.1 1.84.37 2.32q.18.35.53.52.36.21 1.24.23h7.65a4 4 0 0 1-.64-2.14v-.93zM13.14 5.81a1 1 0 0 1-.73 0l-1.66-.74-1.63.74a1 1 0 0 1-.74 0l-.73-.33v8.66h5.19c.5 0 .9.4.9.9v1.83a2.14 2.14 0 0 0 4.28 0V5.45l-.84.36a1 1 0 0 1-.71 0l-1.7-.74z" clip-rule="evenodd"/></svg>
